svg/fluentui-system-icons/ic_fluent_braces_24_filled.svg

<svg width="24" height="24" viewBox="0 0 24 24" fill="none" xmlns="http://www.w3.org/2000/svg">
<path d="M4 6C4 4.34315 5.34315 3 7 3C7.55228 3 8 3.44772 8 4C8 4.55228 7.55228 5 7 5C6.44772 5 6 5.44772 6 6V9.93845C6 10.7267 5.69282 11.457 5.1795 12C5.69282 12.543 6 13.2733 6 14.0616V18C6 18.5523 6.44772 19 7 19C7.55228 19 8 19.4477 8 20C8 20.5523 7.55228 21 7 21C5.34315 21 4 19.6569 4 18V14.0616C4 13.6027 3.6877 13.2027 3.24254 13.0914L2.75746 12.9701C2.3123 12.8589 2 12.4589 2 12C2 11.5411 2.3123 11.1411 2.75746 11.0299L3.24254 10.9086C3.6877 10.7973 4 10.3973 4 9.93845V6ZM20 6C20 4.34315 18.6569 3 17 3C16.4477 3 16 3.44772 16 4C16 4.55228 16.4477 5 17 5C17.5523 5 18 5.44772 18 6V9.93845C18 10.7267 18.3072 11.457 18.8205 12C18.3072 12.543 18 13.2733 18 14.0616V18C18 18.5523 17.5523 19 17 19C16.4477 19 16 19.4477 16 20C16 20.5523 16.4477 21 17 21C18.6569 21 20 19.6569 20 18V14.0616C20 13.6027 20.3123 13.2027 20.7575 13.0914L21.2425 12.9701C21.6877 12.8589 22 12.4589 22 12C22 11.5411 21.6877 11.1411 21.2425 11.0299L20.7575 10.9086C20.3123 10.7973 20 10.3973 20 9.93845V6Z" fill="#212121"/>
</svg>

<svg xmlns="http://www.w3.org/2000/svg" width="24" height="24"><path d="M4 6a3 3 0 0 1 3-3 1 1 0 0 1 0 2 1 1 0 0 0-1 1v3.938c0 .789-.307 1.519-.82 2.062.513.543.82 1.273.82 2.062V18a1 1 0 0 0 1 1 1 1 0 1 1 0 2 3 3 0 0 1-3-3v-3.938a1 1 0 0 0-.757-.97l-.486-.122a1 1 0 0 1 0-1.94l.486-.121A1 1 0 0 0 4 9.939V6Zm16 0a3 3 0 0 0-3-3 1 1 0 1 0 0 2 1 1 0 0 1 1 1v3.938c0 .789.307 1.519.82 2.062a2.997 2.997 0 0 0-.82 2.062V18a1 1 0 0 1-1 1 1 1 0 1 0 0 2 3 3 0 0 0 3-3v-3.938a1 1 0 0 1 .758-.97l.485-.122a1 1 0 0 0 0-1.94l-.485-.121a1 1 0 0 1-.758-.97V6Z"/></svg>
